X:76
T: Gyimes táncdallam
K: F
M: 4/4
L: 1/4
ffgg | fffc | 
gfgf | dccB | 
dfcB | GGGF | 
dfBF | G<G G2 | 

